X: 2462
T: Balls To Hall
R: jig
M: 6/8
K: Eminor
|:GEE AEE|BEE cBA|BcB ~B2A|FAF DEF|
GEE AEE|BEE cBA|BcB ~B2A|1 GED E2F:|2 GED E3||
K: Emaj
|:B2e e2f|g3 gfe|c2a a2g|fgf fec|
[1 B2e e2f|g3 g2a|b2e a3|g3 fec:|
[2 B2e e2f|g3 g3|aef =dAB|F3 =DEF||

